site/static/img/design.svg

<svg width="194" height="193" viewBox="0 0 194 193" fill="none" xmlns="http://www.w3.org/2000/svg">
<path fill-rule="evenodd" clip-rule="evenodd" d="M88.718 58.8546C74.5591 88.5613 66.9519 105.383 54.6801 135.941L54.464 136.479L54.6661 137.023L69.1661 176.023L69.5294 177H70.5721H96.0721H121.572H122.615L122.978 176.023L137.478 137.023L137.68 136.479L137.464 135.941C125.192 105.383 117.585 88.5613 103.426 58.8546L100.718 60.1454C114.774 89.636 122.348 106.375 134.464 136.521L120.529 174H96.0721H71.6147L57.6802 136.521C69.7963 106.375 77.3702 89.636 91.4261 60.1454L88.718 58.8546Z" fill="#964EA2"/>
<path d="M96 71.5V136" stroke="#964EA2" stroke-width="2"/>
<path d="M74 185H118" stroke="#964EA2" stroke-width="3"/>
<rect x="5" y="92" width="18" height="18" fill="#964EA2"/>
<rect x="173" y="92" width="18" height="18" fill="#964EA2"/>
<path d="M182 96C182 84.969 179.827 74.0459 175.606 63.8546C171.384 53.6632 165.197 44.4032 157.397 36.603C149.597 28.8029 140.337 22.6155 130.145 18.3941C119.954 14.1727 109.031 12 98 12C86.969 12 76.0459 14.1727 65.8546 18.3941C55.6632 22.6155 46.4031 28.8029 38.603 36.603C30.8029 44.4032 24.6155 53.6632 20.3941 63.8546C16.1727 74.0459 14 84.969 14 96" stroke="#964EA2" stroke-width="2"/>
<rect x="89" y="3" width="18" height="18" fill="#964EA2"/>
<rect x="177" y="5" width="14" height="14" rx="7" fill="#964EA2"/>
<rect x="5" y="5" width="14" height="14" rx="7" fill="#964EA2"/>
<path d="M98.5 12H185" stroke="#964EA2" stroke-width="2"/>
<path d="M12 12H98.5" stroke="#964EA2" stroke-width="2"/>
</svg>

<svg xmlns="http://www.w3.org/2000/svg" width="194" height="193" fill="none"><path fill="#964EA2" fill-rule="evenodd" d="M88.72 58.85c-14.16 29.71-21.77 46.53-34.04 77.1l-.22.53.2.54 14.5 39 .37.98h53.09l.36-.98 14.5-39 .2-.54-.22-.54c-12.27-30.56-19.88-47.38-34.03-77.09l-2.71 1.3c14.05 29.49 21.63 46.23 33.74 76.37L120.53 174H71.6l-13.93-37.48c12.12-30.15 19.69-46.88 33.75-76.37l-2.71-1.3Z" clip-rule="evenodd"/><path stroke="#964EA2" stroke-width="2" d="M96 71.5V136"/><path stroke="#964EA2" stroke-width="3" d="M74 185h44"/><path fill="#964EA2" d="M5 92h18v18H5zm168 0h18v18h-18z"/><path stroke="#964EA2" stroke-width="2" d="M182 96a84 84 0 0 0-168 0"/><path fill="#964EA2" d="M89 3h18v18H89z"/><rect width="14" height="14" x="177" y="5" fill="#964EA2" rx="7"/><rect width="14" height="14" x="5" y="5" fill="#964EA2" rx="7"/><path stroke="#964EA2" stroke-width="2" d="M98.5 12H185M12 12h86.5"/></svg>
